fs/folder_prohibited_24_filled.svg

<svg viewBox="0 0 24 24" fill="none" xmlns="http://www.w3.org/2000/svg" height="1em" width="1em">
  <path d="M17.5 11C20.5376 11 23 13.4624 23 16.5C23 19.5376 20.5376 22 17.5 22C14.4624 22 12 19.5376 12 16.5C12 13.4624 14.4624 11 17.5 11ZM20.8092 14.2523L15.2523 19.8092C15.8929 20.2452 16.6667 20.5 17.5 20.5C19.7091 20.5 21.5 18.7091 21.5 16.5C21.5 15.6667 21.2452 14.8929 20.8092 14.2523ZM19.75 6.5C20.8867 6.5 21.8266 7.34297 21.9785 8.43788L21.9948 8.59595L22 8.75L22.0008 11.8104C20.8328 10.6891 19.2469 10 17.5 10C13.9101 10 11 12.9101 11 16.5C11 17.7892 11.3753 18.9907 12.0226 20.0012L4.25 20C3.05914 20 2.08436 19.0748 2.00519 17.904L2 17.75V10.499L8.20693 10.5L8.40335 10.4914C8.79396 10.4572 9.16896 10.3214 9.49094 10.0977L9.64734 9.9785L13.821 6.5H19.75ZM17.5 12.5C15.2909 12.5 13.5 14.2909 13.5 16.5C13.5 17.3333 13.7548 18.1071 14.1908 18.7477L19.7477 13.1908C19.1071 12.7548 18.3333 12.5 17.5 12.5ZM8.20693 4C8.66749 4 9.1153 4.14129 9.49094 4.40235L9.64734 4.5215L11.75 6.273L8.68706 8.82617L8.60221 8.88738C8.51363 8.94232 8.41452 8.9782 8.31129 8.9927L8.20693 9L2 8.999V6.25C2 5.05914 2.92516 4.08436 4.09595 4.00519L4.25 4H8.20693Z" fill="#212121"/>
</svg>

<svg viewBox="0 0 24 24" fill="none" xmlns="http://www.w3.org/2000/svg" height="1em" width="1em">
  <path d="M17.5 11a5.5 5.5 0 1 1 0 11 5.5 5.5 0 0 1 0-11Zm3.31 3.252-5.558 5.557a4 4 0 0 0 5.557-5.557ZM19.75 6.5a2.25 2.25 0 0 1 2.229 1.938l.016.158.005.154v3.06A6.5 6.5 0 0 0 12.023 20H4.25a2.25 2.25 0 0 1-2.245-2.096L2 17.75v-7.251l6.207.001.196-.009a2.25 2.25 0 0 0 1.088-.393l.156-.12L13.821 6.5h5.929Zm-2.25 6a4 4 0 0 0-3.31 6.248l5.558-5.557A3.981 3.981 0 0 0 17.5 12.5ZM8.207 4c.46 0 .908.141 1.284.402l.156.12 2.103 1.751-3.063 2.553-.085.061a.75.75 0 0 1-.29.106L8.206 9 2 8.999V6.25a2.25 2.25 0 0 1 2.096-2.245L4.25 4h3.957Z" fill="#212121"/>
</svg>
